X: 041
T: Hilton Lodge
%O: 1795
%R: strathspey
Z: 2018 John Chambers <jc:trillian.mit.edu>
B: Wm. Campbell "10th Book of New and Favorite Country Dances, Strathey Reels" 1795 p.4
F: https://archive.org/details/campbellstenthbo00camp
M: C
L: 1/8
K: C
% - - - - - - - - - - - - - - - - - - - - - - - - -
% Voice 1 arranged for small-scale proofreading
V: 1 staves=2
(e/f/) |\
g<cge fd (de/f/) | g<cg>e c>eg>e |\
fdec dD-DE | C>Ec>E G2G :: E |\
C<EcE FD-DE | C<EcE G>cEc |
GcEc dD-D>E | C>EcE {E}G2GE |\
CEcE FD-DE | C>EcE G<cEc |\
F<dEc Dd (de/f/) | ecdB {B}c2c |]
% - - - - - - - - - - - - - - - - - - - - - - - - -
% Voice 1 preserves the original staff layout
V: 2 clef=bass middle=d
z |\
c2e2 g2G2 | c2e2 e2c2 | G2c2 g2Gz | c2c2 c2c :: z |
c2e2 g2G2 | c2e2 e2c2 | G2c2 g2G2 | c2c2 c2c2 | c2e2 g2G2 |
c2c2 e2c2 | G2c2g2G2 | c2g2 c2c |]
% - - - - - - - - - - - - - - - - - - - - - - - - -
%%begintext align
%%  Turn your partner with the Right hand half round  turn
%%  the sides with the Left hand  turn the sides back with the
%%  right hand turn your partner with the Left hand to proper place
%% Lead down the middle up again & Poussett with the 2d Cu
%%endtext
% - - - - - - - - - - - - - - - - - - - - - - - - -

%%sep 1 1 500
%%sep 1 1 500

